X: 1
T: Sweet Journeys   [A]
C: George Wilson
R: waltz
Z: 2020 John Chambers <jc:trillian.mit.edu>
S: https://www.facebook.com/groups/Fiddletuneoftheday/
S: https://www.youtube.com/watch?v=xEKPteM9MEM (in A)
S: https://www.youtube.com/watch?v=tj41aaePzOY (in D)
M: 3/4
L: 1/8
K: A
|:\
"A"A,3 C E2 | A c3 B2 | "D"A3 F D2 | "A"E3 F/E/ D2 |\
C3 E A2 | c e3 f2 | "Bm"e3 c A2 | "E7"B3 A Bc |
"D"d3 e fd | "A"e2 c2 A2 | "D"F3 E D2 | "E7"E3 F/E/ D2 |\
"A"C A3 c2 | "E7"B3 A G2 |1 "A"A6- | A3 E CB, :|
[2 "A"A6- | A4 |: e2 |\
"D"f3 e d2 | f a3 f2 | "A"e3 c A2 | A4 E2 |\
"D"F d3 F2 | "A"E c3 e2 | "Bm"e3 d c2 | "E7"B3 A Bc |
"D"d3 e f2 | "E7"g3 a b2 | "A"a2 e2 c2 | "D"f3 g a2 |\
"A"e2 c2 A2 | "D"F d3 "E7"G2 |1 "A"A6- | A4 :|2 "A"A6- | A3 E "_d.C."CB, |]
